X: 17
T: Lille
R: minuet
M: 3/2
L: 1/8
Z: 2011 John Chambers <jc:trillian.mit.edu>
B: Andrew Shaw "Mr Kynaston's Famous Dance" p.17
P: Play AABB x 3
K: Bb
%
"A"[|]Bc |\
"Bb"B2B,2 B,2B2 "Gm"A2G2 | "Cm"c2G2 GABc "F"A2F2 | "Bb"Bcd2 "Cm"ABc2 GABc | "F"A2B2 "C"cBAG "F"F2GA |
"Bb"B2B,2 B,2B2 "Gm"A2G2 | "Cm"c2G2 GAB2 "F"A2F2 | "Bb"BcdB "Cm"ABcA "Bb"GABG | "Eb"F2B2 "F"B3A "Bb"B2 :|
"B"|: de |\
"Bb"f2B2 B2d2 c2B2 | "C"g2c2 cde2 "Bb"d2f2 | "Eb"gaga "Gm"b2a2 g2f2 | "C"=e2f2 f3e "F"f2ga |
"Eb"b2e2 "Bb"d2b2 "Eb"abag | "Bb"fgfe d2g2 "Eb"fgfe | "Bb"dedc "Gm"BcdB "Cm"cBAG | "F"F2B2 B3A "Bb"B2 :|
